img/icons/misc/id-card.svg

<svg viewBox="0 0 16 16" xmlns="http://www.w3.org/2000/svg"><path d="m9.5 5c-0.276 0-0.5 0.224-0.5 0.5 0 0.276 0.224 0.5 0.5 0.5h3c0.276 0 0.5-0.224 0.5-0.5 0-0.276-0.224-0.5-0.5-0.5h-3z" fill="#000"/><path d="m9.5 7c-0.276 0-0.5 0.224-0.5 0.5 0 0.276 0.224 0.5 0.5 0.5h3c0.276 0 0.5-0.224 0.5-0.5 0-0.276-0.224-0.5-0.5-0.5h-3z" fill="#000"/><path d="m9 9.5c0-0.276 0.224-0.5 0.5-0.5h2c0.276 0 0.5 0.224 0.5 0.5 0 0.276-0.224 0.5-0.5 0.5h-2c-0.276 0-0.5-0.224-0.5-0.5z" fill="#000"/><path d="m6.61 6.5c0 0.828-0.719 1.5-1.61 1.5s-1.61-0.672-1.61-1.5c0-0.828 0.719-1.5 1.61-1.5s1.61 0.672 1.61 1.5z" fill="#000"/><path d="m5 8h-0.0407c-0.92 0-1.72 0.585-1.94 1.42-0.079 0.295 0.16 0.582 0.486 0.582h3c0.326 0 0.565-0.286 0.486-0.582-0.223-0.834-1.02-1.42-1.94-1.42h-0.0407z" fill="#000"/><path d="m0.327 3.64c-0.327 0.642-0.327 1.48-0.327 3.16v2.4c0 1.68 0 2.52 0.327 3.16 0.288 0.564 0.747 1.02 1.31 1.31 0.642 0.327 1.48 0.327 3.16 0.327h6.4c1.68 0 2.52 0 3.16-0.327 0.564-0.288 1.02-0.746 1.31-1.31 0.327-0.642 0.327-1.48 0.327-3.16v-2.4c0-1.68 0-2.52-0.327-3.16-0.288-0.564-0.746-1.02-1.31-1.31-0.642-0.327-1.48-0.327-3.16-0.327h-6.4c-1.68 0-2.52 0-3.16 0.327-0.564 0.288-1.02 0.747-1.31 1.31zm10.9-0.638h-6.4c-0.857 0-1.44 7.7e-4 -1.89 0.0376-0.438 0.0358-0.663 0.101-0.819 0.18-0.376 0.192-0.682 0.498-0.874 0.874-0.0797 0.156-0.145 0.381-0.18 0.819-0.0368 0.45-0.0376 1.03-0.0376 1.89v2.4c0 0.857 7.8e-4 1.44 0.0376 1.89 0.0358 0.438 0.101 0.663 0.18 0.819 0.192 0.376 0.498 0.682 0.874 0.874 0.156 0.0797 0.381 0.145 0.819 0.18 0.45 0.0367 1.03 0.0375 1.89 0.0375h6.4c0.857 0 1.44-8e-4 1.89-0.0375 0.438-0.0359 0.663-0.101 0.819-0.18 0.376-0.192 0.682-0.498 0.874-0.874 0.0797-0.156 0.145-0.381 0.18-0.819 0.0368-0.45 0.0376-1.03 0.0376-1.89v-2.4c0-0.857-8e-4 -1.44-0.0376-1.89-0.0358-0.438-0.101-0.663-0.18-0.819-0.192-0.376-0.498-0.682-0.874-0.874-0.156-0.0797-0.381-0.145-0.819-0.18-0.45-0.0368-1.03-0.0376-1.89-0.0376z" clip-rule="evenodd" fill="#000" fill-rule="evenodd"/></svg>

<svg xmlns="http://www.w3.org/2000/svg" viewBox="0 0 16 16" fill="none">
  <path fill="#000"
    d="M9.5 5a.5.5 0 1 0 0 1h3a.5.5 0 0 0 0-1h-3Zm0 2a.5.5 0 1 0 0 1h3a.5.5 0 0 0 0-1h-3ZM9 9.5a.5.5 0 0 1 .5-.5h2a.5.5 0 0 1 0 1h-2a.5.5 0 0 1-.5-.5Zm-2.395-3C6.605 7.33 5.887 8 5 8s-1.605-.67-1.605-1.5C3.395 5.672 4.113 5 5 5s1.605.672 1.605 1.5ZM5 8h-.04c-.92 0-1.722.585-1.945 1.419-.079.295.16.581.486.581H6.5c.326 0 .565-.286.486-.581C6.762 8.585 5.96 8 5.04 8H5Z" />
  <path fill="#000" fill-rule="evenodd"
    d="M.327 3.638C0 4.28 0 5.12 0 6.8v2.4c0 1.68 0 2.52.327 3.162a3 3 0 0 0 1.311 1.311C2.28 14 3.12 14 4.8 14h6.4c1.68 0 2.52 0 3.162-.327a3 3 0 0 0 1.311-1.31C16 11.72 16 10.88 16 9.2V6.8c0-1.68 0-2.52-.327-3.162a3 3 0 0 0-1.311-1.31C13.72 2 12.88 2 11.2 2H4.8c-1.68 0-2.52 0-3.162.327A3 3 0 0 0 .327 3.638ZM11.2 3H4.8c-.857 0-1.439.001-1.889.038-.438.036-.663.1-.819.18a2 2 0 0 0-.874.874c-.08.157-.145.38-.18.82C1 5.361 1 5.943 1 6.8v2.4c0 .857 0 1.44.038 1.89.035.438.1.662.18.818a2 2 0 0 0 .874.874c.156.08.38.145.819.18C3.361 13 3.943 13 4.8 13h6.4c.857 0 1.439 0 1.889-.037.438-.036.663-.101.819-.18a2 2 0 0 0 .874-.875c.08-.156.145-.38.18-.819C15 10.64 15 10.057 15 9.2V6.8c0-.856 0-1.439-.038-1.889-.035-.438-.1-.662-.18-.819a2 2 0 0 0-.874-.874c-.156-.08-.38-.144-.819-.18C12.639 3 12.057 3 11.2 3Z"
    clip-rule="evenodd" />
</svg>
